core/img/actions/profile.svg

<svg width="16" height="16" fill="none" viewBox="0 0 16 16" xmlns="http://www.w3.org/2000/svg"><path d="m8 1c0.92826 0 1.8185 0.36875 2.4749 1.0251 0.6564 0.65637 1.0251 1.5466 1.0251 2.4749s-0.3687 1.8185-1.0251 2.4749c-0.6564 0.65638-1.5466 1.0251-2.4749 1.0251s-1.8185-0.36875-2.4749-1.0251c-0.65638-0.65637-1.0251-1.5466-1.0251-2.4749s0.36875-1.8185 1.0251-2.4749c0.65637-0.65638 1.5466-1.0251 2.4749-1.0251zm0 8.75c3.8675 0 7 1.5662 7 3.5v1.75h-14v-1.75c0-1.9338 3.1325-3.5 7-3.5z" fill="#000"/></svg>

<svg width="16" height="16" viewBox="0 0 16 16" fill="none" xmlns="http://www.w3.org/2000/svg"><path d="M8 1C8.92826 1 9.8185 1.36875 10.4749 2.02513C11.1313 2.6815 11.5 3.57174 11.5 4.5C11.5 5.42826 11.1313 6.3185 10.4749 6.97487C9.8185 7.63125 8.92826 8 8 8C7.07174 8 6.1815 7.63125 5.52513 6.97487C4.86875 6.3185 4.5 5.42826 4.5 4.5C4.5 3.57174 4.86875 2.6815 5.52513 2.02513C6.1815 1.36875 7.07174 1 8 1V1ZM8 9.75C11.8675 9.75 15 11.3162 15 13.25V15H1V13.25C1 11.3162 4.1325 9.75 8 9.75Z" fill="black"/></svg>
